X: 3056
T: WITCH OF THE WAVE
Q:"Reel."
R: Reel.
%R:reel
B: James Kerr "Merry Melodies" v.3 p.8 #56
Z: 2016 John Chambers <jc:trillian.mit.edu>
M: C
L: 1/8
K: G
uD2 |\
GABc dedB | cdef gage |\
dedB cBAG | FGAG FDEF |\
GABc dedB | cdef gfga |
bagf gfed | ^cdef g2 |:\
(fg) |\
afdf gfed | ^cABc defg |\
afdf gfed | ^cABc d2 :|

%%sep 1 1 500
%%sep 1 1 500

